icon-themes/sifr_svg/chart2/res/typestock_16.svg

<svg viewBox="0 0 16 16" xmlns="http://www.w3.org/2000/svg"><path d="m9 2v9h2v-5h2v-2h-2v-2zm-6 4v8h2v-2h2v-2h-2v-4z" fill="#555753"/></svg>

<svg xmlns="http://www.w3.org/2000/svg" viewBox="0 0 16 16">
  <path
     style="fill:#555753"
     d="M 9 2 L 9 11 L 11 11 L 11 6 L 13 6 L 13 4 L 11 4 L 11 2 L 9 2 z M 3 6 L 3 14 L 5 14 L 5 12 L 7 12 L 7 10 L 5 10 L 5 6 L 3 6 z "
     />
</svg>
